X: 23272
T: Leaving Stage Harbor
R: waltz
M: 3/4
K: Amixolydian
E2|"A"A3BA2|"Em"G4E2|"A"A2c2e2|"D" d3cd2|"A"e2c2A2|"G" d2B2G2|"A"A3EA2|"Em" {F}G4E2|
"A"A3BA2|"Em"G3FE2|"A"A2c2e2|"D" d4cd|"A"e2c2A2|"G"d2B2G2|"D/F#"(A6|"/G"{G} A4)z:|
ef|"Em"g2f2e2|"A"a4ea|"G"{f}g2e2c2|"D"de3d2|"A"c2B2A2|"G"d2B2G2|"A"A3EA2|"Em"{F}G4E2|
"A"A3BA2|"Em"G4E2|"A"A2c2e2|"D"d4cd|"A"e2c2A2|"G"d2B2G2|"D/F#"(A6|"/G(A)"{G}A4):|

